X:1
T: Now, Bend your Knees
C:Bruce Shawyer
R:Jig
Q:180
K:G
M:6/8
L:1/16
d2|G4G2 G2B2d2|g4g2 g4d2|e2f2g2 e4g2|d6 d4d2|e2f2g2 e4g2|d4B2 G4B2|c2B2A2 A4G2|F2G2A2 D4D2|
G4G2 G2B2d2|g4g2 g4d2|e2f2g2 e4g2|d6 d4d2|e2f2g2 e4g2|d4B2 G4B2|c4A2 D2E2F2|G6 G4F2|
E4E2 E2G2B2|e4e2 e4f2|g2f2e2 g2f2e2|B6 B4B2|D4D2 D2F2A2|d4d2 d4e2|f2e2d2 f2e2d2|A6 A4A2|
E4E2 E2G2B2|e4e2 e4f2|g2f2e2 g2f2e2|B6 B2e2f2|g2f2e2 e2d2B2|c2B2A2 A2G2E2|F2G2A2 D2E2F2|G6 G4||
